X:1
T:Souvent je m'esbas
T:Souvent je m'esbas
T:Thomas Crecquillon
C:Thomas Crecquillon
%%score [ 1 [ 2 3 ] 4 ]
L:1/8
Q:1/4=80
M:2/2
K:C
V:1 treble nm="Superius" snm="S"
V:2 treble-8 nm="Tenor 1" snm="T 1"
V:3 treble-8 nm="Tenor 2" snm="T 2"
V:4 bass nm="Bass" snm="B"
V:1
 G8 | G4 A4 | G4 E2 e2 | e3 d c2 B2 | A2 G2 c3 B | A2 G2 F2 B2 | A2 G4 F2 | G2 d4 B2 | e4 d4 | %9
w: Sou-|vent je|m'es- bas et|mon _ _ cueur|est mar- * *|||ry, et vis|en dueil|
 z2 d2 d2 B2 | c2 d2 e2 f2 | e2 d4 c2- | c2 B2 c4 | z4 z2 c2 | BAGB AGFA | G2 F2 E4 | D8 | %17
w: et en grand|des- plai- san- *||* * ce|tout-|te les fois que j'ay en sou- ve-|nan- * *|ce|
 z4 G2 GG |: c3 B A2 G2 | F2 E2 D2 D2 | E3 F G2 A2- | AG G4 F2 |1 G4 z GGG :|2 AG G4 F2 || G8 |] %25
w: de la bel-|le qui vers moy|a fail- ly, [qui|vers _ moy a|_ _ fail- *|ly, de le bel-|(a) _ fail- *|ly.|
V:2
 d8 | e4 f4 | d4 e4 | z2 g2 g3 f | e3 d c2 f2 | f2 e2 d2 f2- | fedc d4 | z2 d4 d2 | g6 fe | %9
w: Sou-|vent je|m'es- bas|et mon cueur|est mar- ry, et|mon cueur est mar-|* * * * ry,|et vis|en _ _|
 f4 g2 d2 | e2 f2 g2 a2- | ag g2 e2 f2 | g4 e2 g2 | gfeg fe f2- | fe/d/ e2 f3 e | d3 c B2 c2 | %16
w: dueil et en|grand des- plai- *|* * san- * *|* ce tout-|te les fois que j'ay en sou-|* * * ve- nan- *||
 A4 B2 d2 | dd g4 e2 |: e2 e2 f2 e2 | d2 c4 B2 | c2 e2 e2 A2 | B2 c2 d2 d2 |1 dd g4 e2 :|2 %23
w: * ce de|la bel- le qui|vers moy a fail-||ly, qui vers moy|a fail- ly, de|la bel- le qui|
 B2 c2 d4- || d8 |] %25
w: a fail- ly.|_|
V:3
 B8 | c6 A2 | B4 G2 g2 | g3 f e2 d2 | c4 z2 c2 | c2 B2 A2 d2 |"^b" c2 B2 A4 | G4 B4 | c4 B2 AG | %9
w: Sou-|vent je|m'es- bas et|mon cueur est mar-|ry, et|mon cueur est mar-||ry, et|vis en _ _|
 A4 z2 G2 | G2 A2 c4- | c2 B2 c4 | d4 c2 e2 | dcBd cB c2 | d2 B2 cB Ac | B2 A3 G G2- | %16
w: dueil et|en grand des-|* plai- san-|* ce tout-|te les fois que j'ay en sou-|ve- nan- * * * *||
"^#" G2 F2 G4 | B2 BB e4 |: z2 c4 B2 | A2 G2 A2 G2- | G2 c2 c2 c2 | B2 AG A4 |1 GBBB d4 :|2 %23
w: * * ce|de la bel- le|qui vers|moy a fail- ly,|_ qui vers moy|a fail- * *|ly, de la bel- le|
 B2 AG A4 || G8 |] %25
w: a fail- * *|ly.|
V:4
"^b" G,8 | C,4 F,4 | G,4 C,4 | z2 C2 C2 G,2 | A,2 C3 B,A,G, | F,2 G,2 D,3 E, | F,2 G,2 D,4 | %7
w: Sou-|vent je|m'es- bas|et mon cueur|est mar- * * *||* * ry,|
 z2 G,4 G,2 | C,4 D,4- | D,2 D,2 G,3 F, | E,2 D,2 C,2 F,2 | G,4 A,4 | G,4 z2 C2 | %13
w: et vis|en dueil|_ et en _|_ grand des- plai-|san- *|ce tout-|
 B,A,G,B, A,G,F,A, | G,4 F,2 F,2 | G,2 D,2 E,2 C,2 | D,4 z4 | G,2 G,G, C3 B, |: A,3 G, F,2 G,2 | %19
w: te fois que j'ay en sou- ve- nan-|* ce, en|sou- ve- nan- *|ce|de la bel- le qui|vers _ _ moy|
 D,2 E,2 F,2 G,2 |"^#" C,3 D, E,2 F,2 | G,2 E,2 D,4 |1 z G,G,G, C3 B, :|2 G,2 E,2 D,4 || G,8 |] %25
w: a fail- ly, qui|vers _ _ moy|a fail- ly,|de la bel- le qui|a fail- *|ly.|

